X:1
T:Visio Domini, 11.10.11.10
T:Visio Domini, 11.10.11.10
T:John Bacchus Dykes, 1871
T:Public Domain Courtesy of the Cyber Hymnal™
C:John Bacchus Dykes, 1871
Z:Public Domain
Z:Courtesy of the Cyber Hymnal™
%%score ( 1 2 ) ( 3 4 )
L:1/8
Q:1/4=113
M:3/4
K:G
V:1 treble 
V:2 treble 
V:3 bass 
V:4 bass 
V:1
 [DB]2 G2 [EA]2 | [FA]2 !fermata!G2 [DG][DA] | (G2 F2) G2 | [GB]2 [FA]4 x2 | [Gd]2 [Ac]2 [GB]2 | %5
 A4 [DB]2 | [DG][DG] [^CA]2 [CE]2 | [DF]6 | [DF]2 [DG]2 A2 | [FA]4 (G-[DG]) | [E^G][EG] [EA]2 B2 | %11
 [^GB]4 A2 | [Ec]2 [Ec]2 [Dd]2 | [DB]3 D [DE][CA] | [CA]4 [CA]2 | [B,G]6 |] %16
V:2
 x6 | x6 | D4 (DE) | x8 | x6 | (E2 D2) x2 | x6 | x6 | x4 (DE) | x6 | x4 (EF) | x6 | x6 | x3 D x2 | %14
 x6 | x6 |] %16
V:3
 [G,B,]2 [E,B,]2 [C,C]2 | [D,C]2 !fermata![G,B,]2 B,B, | [A,C]4 (B,C) | [D,D]2 D4 C2 | %4
 [B,D]2 [F,D]2 [G,D]2 | [G,^C]2 [F,D]2 [F,A,]2 | [E,B,][E,B,] [E,A,]2 [E,G,]2 | [D,A,]6 | %8
 [D,A,]2 [D,B,]2 [D,C]2 | [D,C]4 B,2 | [E,B,][E,B,] [E,C]2 [E,D]2 | [E,D]4 [A,C]2 | %12
 A,2 [G,A,]2 [F,A,]2 | [G,B,]3 [G,B,] [C,B,][C,A,] | (G,F,E,D,) (D,F,) | [G,,G,]6 |] %16
V:4
 x6 | x6 | x4 G,2 | x2 D2 x4 | x6 | x6 | x6 | x6 | x6 | x4 (G,=F,) | x6 | x6 | x6 | x6 | D,4 D,2 | %15
 x6 |] %16

